X: 305553
M: 6/8
L: 1/8
K: G
|:\
g2g f2f | e2e def | g2g f2d | e3 d3 |\
gbg faf | ege def | (g//a//b3/)g fed | e3 df"^D.C."c |]


